apps/scalable/2402_msiexec.svg

<svg xmlns="http://www.w3.org/2000/svg" style="isolation:isolate" width="256" height="256"><defs><filter id="a" width="270.648" height="254.338" x="-7.32" y="2.95" filterUnits="userSpaceOnUse"><feGaussianBlur xmlns="http://www.w3.org/2000/svg" in="SourceGraphic" stdDeviation="4.294"/><feOffset xmlns="http://www.w3.org/2000/svg" dy="4" result="pf_100_offsetBlur"/><feFlood xmlns="http://www.w3.org/2000/svg" flood-opacity=".4"/><feComposite xmlns="http://www.w3.org/2000/svg" in2="pf_100_offsetBlur" operator="in" result="pf_100_dropShadow"/><feBlend xmlns="http://www.w3.org/2000/svg" in="SourceGraphic" in2="pf_100_dropShadow"/></filter></defs><path fill="#BC1938" d="M165.685 11.947c74.055 0 84.639 10.557 84.639 84.544v59.251c0 73.986-10.584 84.543-84.639 84.543h-75.37c-74.055 0-84.639-10.557-84.639-84.543V96.491c0-73.987 10.584-84.544 84.639-84.544h75.37z" filter="url(#a)"/><path fill="#FFF" d="M128 11.947v228.338h37.685c74.055 0 84.639-10.557 84.639-84.543V96.491c0-73.987-10.584-84.544-84.639-84.544H128z" opacity=".2"/><g opacity=".4"><linearGradient id="b" x1=".517" x2=".517" y2="1"><stop offset="0%" stop-color="#fff"/><stop offset="12.5%" stop-opacity=".098" stop-color="#fff"/><stop offset="92.5%" stop-opacity=".098"/><stop offset="100%" stop-opacity=".498"/></linearGradient><path fill="none" stroke="url(#b)" stroke-linecap="round" stroke-linejoin="round" stroke-width="4.077" d="M165.685 11.947c74.055 0 84.639 10.557 84.639 84.544v59.251c0 73.986-10.584 84.543-84.639 84.543h-75.37c-74.055 0-84.639-10.557-84.639-84.543V96.491c0-73.987 10.584-84.544 84.639-84.544h75.37z" vector-effect="non-scaling-stroke"/></g><path fill="#FFF" d="M175.171 70.924s-2.65 1.201-8.736 6.259c-7.443 6.182-12.052 5.684-17.497 4.771l-.042.048a48.253 48.253 0 0 0-3.15-1.316v-.047c-4.496-3.202-8.106-6.112-8.997-15.747-.728-7.875-1.751-10.603-1.751-10.603-2.967-1.289-7-1.289-7-1.289s-4.033 0-6.998 1.29c0 0-1.026 2.726-1.752 10.603-.891 9.634-4.503 12.543-8.997 15.746l-.008.057a49.983 49.983 0 0 0-3.149 1.315l-.043-.047c-5.444.913-10.055 1.409-17.498-4.773-6.084-5.054-8.736-6.259-8.736-6.259-3.003 1.179-5.853 4.03-5.853 4.03s-2.853 2.852-4.037 5.861c0 0 1.205 2.653 6.259 8.735 6.183 7.442 5.686 12.055 4.773 17.497l.043.047a51.96 51.96 0 0 0-1.317 3.149h-.042c-3.201 4.496-6.112 8.106-15.747 8.997-7.875.728-10.605 1.754-10.605 1.754-1.289 2.965-1.289 6.991-1.289 6.991s.002 4.036 1.291 7c0 0 2.725 1.026 10.602 1.751 9.634.89 12.54 4.505 15.746 8.998h.043c.398 1.064.843 2.11 1.315 3.149l-.043.048c.916 5.443 1.411 10.053-4.772 17.495-5.054 6.084-6.259 8.74-6.259 8.74 1.189 3.009 4.036 5.857 4.036 5.857s2.853 2.853 5.862 4.036c0 0 2.652-1.201 8.735-6.258 7.443-6.182 12.054-5.681 17.498-4.773l.042-.047c1.042.473 2.087.919 3.15 1.315l-.007.057c4.497 3.202 8.107 6.111 8.999 15.745.727 7.876 1.752 10.606 1.752 10.606 2.969 1.286 6.997 1.288 6.997 1.288s4.035-.001 6.998-1.293c0 0 1.027-2.722 1.752-10.6.892-9.633 4.507-12.54 8.998-15.746l-.008-.056a50.98 50.98 0 0 0 3.15-1.316l.042.048c5.444-.917 10.054-1.411 17.497 4.772 6.084 5.054 8.739 6.259 8.739 6.259 3.01-1.189 5.858-4.037 5.858-4.037s2.853-2.853 4.037-5.862c0 0-1.2-2.651-6.259-8.734-6.184-7.442-5.682-12.054-4.772-17.496l-.043-.047a49.64 49.64 0 0 0 1.315-3.149h.064c3.203-4.496 6.113-8.106 15.747-8.998 7.877-.727 10.608-1.753 10.608-1.753 1.286-2.968 1.286-6.996 1.286-6.996s0-4.034-1.289-6.999c0 0-2.726-1.026-10.604-1.751-9.635-.891-12.542-4.503-15.748-8.997h-.042a47.818 47.818 0 0 0-1.316-3.149l.043-.047c-.914-5.442-1.411-10.053 4.772-17.496 5.054-6.083 6.261-8.738 6.261-8.738-1.187-3.008-4.038-5.858-4.038-5.858s-2.853-2.853-5.862-4.037h-.004zM152.8 152.797c-13.7 13.698-35.91 13.698-49.61 0-13.699-13.699-13.699-35.908 0-49.606 13.7-13.699 35.91-13.699 49.61 0 13.7 13.698 13.699 35.907 0 49.606z"/></svg>

<svg xmlns="http://www.w3.org/2000/svg" style="isolation:isolate" width="256" height="256" viewBox="0 0 256 256">
 <defs>
  <filter id="vC6zcaUfzMWRbAGZ2OitLvdltcqHOwuy" width="270.648" height="254.338" x="-7.32" y="2.95" filterUnits="userSpaceOnUse">
   <feGaussianBlur xmlns="http://www.w3.org/2000/svg" in="SourceGraphic" stdDeviation="4.294"/>
   <feOffset xmlns="http://www.w3.org/2000/svg" dx="0" dy="4" result="pf_100_offsetBlur"/>
   <feFlood xmlns="http://www.w3.org/2000/svg" flood-opacity=".4"/>
   <feComposite xmlns="http://www.w3.org/2000/svg" in2="pf_100_offsetBlur" operator="in" result="pf_100_dropShadow"/>
   <feBlend xmlns="http://www.w3.org/2000/svg" in="SourceGraphic" in2="pf_100_dropShadow" mode="normal"/>
  </filter>
 </defs>
 <g filter="url(#vC6zcaUfzMWRbAGZ2OitLvdltcqHOwuy)">
  <path fill="#BC1938" d="M 165.685 11.947 C 239.74 11.947 250.324 22.504 250.324 96.491 L 250.324 155.742 C 250.324 229.728 239.74 240.285 165.685 240.285 L 90.315 240.285 C 16.26 240.285 5.676 229.728 5.676 155.742 L 5.676 96.491 C 5.676 22.504 16.26 11.947 90.315 11.947 L 165.685 11.947 Z"/>
 </g>
 <g opacity=".2">
  <path fill="#FFFFFF" d="M 128 11.947 L 128 240.285 L 165.685 240.285 C 239.74 240.285 250.324 229.728 250.324 155.742 L 250.324 96.491 C 250.324 22.504 239.74 11.947 165.685 11.947 L 128 11.947 Z"/>
 </g>
 <g opacity=".4">
  <linearGradient id="_lgradient_220" x1=".517" x2=".517" y1="0" y2="1">
   <stop offset="0%" style="stop-color:rgb(255,255,255)"/>
   <stop offset="12.5%" stop-opacity=".098" style="stop-color:rgb(255,255,255)"/>
   <stop offset="92.5%" stop-opacity=".098" style="stop-color:rgb(0,0,0)"/>
   <stop offset="100%" stop-opacity=".498" style="stop-color:rgb(0,0,0)"/>
  </linearGradient>
  <path fill="none" stroke="url(#_lgradient_220)" stroke-linecap="round" stroke-linejoin="round" stroke-width="4.077" d="M 165.685 11.947 C 239.74 11.947 250.324 22.504 250.324 96.491 L 250.324 155.742 C 250.324 229.728 239.74 240.285 165.685 240.285 L 90.315 240.285 C 16.26 240.285 5.676 229.728 5.676 155.742 L 5.676 96.491 C 5.676 22.504 16.26 11.947 90.315 11.947 L 165.685 11.947 Z" vector-effect="non-scaling-stroke"/>
 </g>
 <path fill="#FFFFFF" d="M 175.171 70.924 C 175.171 70.924 172.521 72.125 166.435 77.183 C 158.992 83.365 154.383 82.867 148.938 81.954 L 148.896 82.002 C 147.859 81.528 146.81 81.084 145.746 80.686 L 145.746 80.639 C 141.25 77.437 137.64 74.527 136.749 64.892 C 136.021 57.017 134.998 54.289 134.998 54.289 C 132.031 53 127.998 53 127.998 53 C 127.998 53 123.965 53 121 54.29 C 121 54.29 119.974 57.016 119.248 64.893 C 118.357 74.527 114.745 77.436 110.251 80.639 L 110.243 80.696 C 109.18 81.094 108.135 81.538 107.094 82.011 L 107.051 81.964 C 101.607 82.877 96.996 83.373 89.553 77.191 C 83.469 72.137 80.817 70.932 80.817 70.932 C 77.814 72.111 74.964 74.962 74.964 74.962 C 74.964 74.962 72.111 77.814 70.927 80.823 C 70.927 80.823 72.132 83.476 77.186 89.558 C 83.369 97 82.872 101.613 81.959 107.055 L 82.002 107.102 C 81.531 108.141 81.085 109.188 80.685 110.251 L 80.643 110.251 C 77.442 114.747 74.531 118.357 64.896 119.248 C 57.021 119.976 54.291 121.002 54.291 121.002 C 53.002 123.967 53.002 127.993 53.002 127.993 C 53.002 127.993 53.004 132.029 54.293 134.993 C 54.293 134.993 57.018 136.019 64.895 136.744 C 74.529 137.634 77.435 141.249 80.641 145.742 L 80.684 145.742 C 81.082 146.806 81.527 147.852 81.999 148.891 L 81.956 148.939 C 82.872 154.382 83.367 158.992 77.184 166.434 C 72.13 172.518 70.925 175.174 70.925 175.174 C 72.114 178.183 74.961 181.031 74.961 181.031 C 74.961 181.031 77.814 183.884 80.823 185.067 C 80.823 185.067 83.475 183.866 89.558 178.809 C 97.001 172.627 101.612 173.128 107.056 174.036 L 107.098 173.989 C 108.14 174.462 109.185 174.908 110.248 175.304 L 110.241 175.361 C 114.738 178.563 118.348 181.472 119.24 191.106 C 119.967 198.982 120.992 201.712 120.992 201.712 C 123.961 202.998 127.989 203 127.989 203 C 127.989 203 132.024 202.999 134.987 201.707 C 134.987 201.707 136.014 198.985 136.739 191.107 C 137.631 181.474 141.246 178.567 145.737 175.361 L 145.729 175.305 C 146.792 174.907 147.839 174.46 148.879 173.989 L 148.921 174.037 C 154.365 173.12 158.975 172.626 166.418 178.809 C 172.502 183.863 175.157 185.068 175.157 185.068 C 178.167 183.879 181.015 181.031 181.015 181.031 C 181.015 181.031 183.868 178.178 185.052 175.169 C 185.052 175.169 183.852 172.518 178.793 166.435 C 172.609 158.993 173.111 154.381 174.021 148.939 L 173.978 148.892 C 174.451 147.85 174.896 146.806 175.293 145.743 L 175.357 145.743 C 178.56 141.247 181.47 137.637 191.104 136.745 C 198.981 136.018 201.712 134.992 201.712 134.992 C 202.998 132.024 202.998 127.996 202.998 127.996 C 202.998 127.996 202.998 123.962 201.709 120.997 C 201.709 120.997 198.983 119.971 191.105 119.246 C 181.47 118.355 178.563 114.743 175.357 110.249 L 175.315 110.249 C 174.917 109.186 174.475 108.139 173.999 107.1 L 174.042 107.053 C 173.128 101.611 172.631 97 178.814 89.557 C 183.868 83.474 185.075 80.819 185.075 80.819 C 183.888 77.811 181.037 74.961 181.037 74.961 C 181.037 74.961 178.184 72.108 175.175 70.924 L 175.171 70.924 Z M 152.8 152.797 C 139.1 166.495 116.89 166.495 103.19 152.797 C 89.491 139.098 89.491 116.889 103.19 103.191 C 116.89 89.492 139.1 89.492 152.8 103.191 C 166.5 116.889 166.499 139.098 152.8 152.797 Z"/>
</svg>
